X: 213
T: Good Health to Our Friends Far Away
B: O'Neill's 213
N: "Lively"
N: "Collected by J.O'Neill"
Z: 1997 by John Chambers <jc@trillian.mit.edu>
M: 6/8
L: 1/8
K:G
(b/a/) \
| g2d e>dB | d>ef g2(b/a/) | g2d e>fg | a>ba a2 (b/a/) \
| g2d e>fg | f>ed Hg2d | (BGB) (AFA) | G3- G2 ||
|| G \
| B2d (d<e)d | cBA G2(B/c/) | d2d d>ef | g3- g2d \
| d>ed efg | f>ed Hg2(d/c/) | (BGB) (AFA) | G3- G2 ||


